packages/kaspersky-hexa-ui-icons/src/iconsSVGs/24/Network.svg

<svg width="24" height="24" viewBox="0 0 24 24" fill="none" xmlns="http://www.w3.org/2000/svg">
<path fill-rule="evenodd" clip-rule="evenodd" d="M9.05277 4.48301C9.29345 3.07316 10.5213 2 11.9997 2C13.4782 2 14.706 3.07316 14.9467 4.483C18.4728 5.70361 21.0048 9.05354 21.0048 12.9949C21.0048 13.574 20.9502 14.1404 20.8457 14.6891C21.5613 15.2353 22.023 16.0972 22.023 17.067C22.023 18.7181 20.6845 20.0567 19.0333 20.0567C18.6212 20.0567 18.2287 19.9733 17.8715 19.8225C16.2949 21.1796 14.2431 22 11.9997 22C9.75635 22 7.70457 21.1796 6.128 19.8226C5.77085 19.9733 5.37829 20.0567 4.96627 20.0567C3.3151 20.0567 1.97656 18.7181 1.97656 17.067C1.97656 16.0972 2.43823 15.2354 3.15377 14.6891C3.0493 14.1404 2.99463 13.574 2.99463 12.9949C2.99463 9.05355 5.52665 5.70363 9.05277 4.48301ZM11.01 4.9897C11.01 4.44311 11.4531 4 11.9997 4C12.5463 4 12.9894 4.44311 12.9894 4.9897C12.9894 5.5363 12.5463 5.97941 11.9997 5.97941C11.4531 5.97941 11.01 5.5363 11.01 4.9897ZM16.3858 18.4572C16.1673 18.0419 16.0436 17.5689 16.0436 17.067C16.0436 15.4532 17.3221 14.1382 18.9214 14.0793C18.9763 13.7259 19.0048 13.3637 19.0048 12.9949C19.0048 10.0409 17.1765 7.51403 14.5897 6.48412C14.0728 7.37798 13.1065 7.97941 11.9997 7.97941C10.8929 7.97941 9.92661 7.37799 9.40973 6.48413C6.82297 7.51405 4.99463 10.0409 4.99463 12.9949C4.99463 13.3637 5.02313 13.7259 5.07806 14.0793C6.67743 14.1381 7.95597 15.4532 7.95597 17.067C7.95597 17.5689 7.83228 18.0419 7.61372 18.4573C8.81419 19.4224 10.3395 20 11.9997 20C13.66 20 15.1853 19.4224 16.3858 18.4572ZM4.96627 16.0773C4.41967 16.0773 3.97656 16.5204 3.97656 17.067C3.97656 17.6136 4.41967 18.0567 4.96627 18.0567C5.51286 18.0567 5.95597 17.6136 5.95597 17.067C5.95597 16.5204 5.51286 16.0773 4.96627 16.0773ZM18.0436 17.067C18.0436 16.5204 18.4867 16.0773 19.0333 16.0773C19.5799 16.0773 20.023 16.5204 20.023 17.067C20.023 17.6136 19.5799 18.0567 19.0333 18.0567C18.4867 18.0567 18.0436 17.6136 18.0436 17.067Z" fill="black"/>
</svg>

<svg xmlns="http://www.w3.org/2000/svg" width="24" height="24" fill="none" viewBox="0 0 24 24"><path fill="#000" fill-rule="evenodd" d="M9.0528 4.483C9.2935 3.0732 10.5213 2 11.9997 2s2.7063 1.0732 2.947 2.483c3.5261 1.2206 6.0581 4.5705 6.0581 8.5119a9.05 9.05 0 0 1-.1591 1.6942c.7156.5462 1.1773 1.4081 1.1773 2.3779 0 1.6511-1.3385 2.9897-2.9897 2.9897a2.98 2.98 0 0 1-1.1618-.2342C16.2949 21.1796 14.2431 22 11.9997 22s-4.2951-.8204-5.8717-2.1774a2.98 2.98 0 0 1-1.1617.2341c-1.6512 0-2.9897-1.3386-2.9897-2.9897 0-.9698.4616-1.8316 1.1772-2.3779a9.05 9.05 0 0 1-.1592-1.6942c0-3.9413 2.532-7.2913 6.0582-8.5119m1.9572.5067c0-.5466.4431-.9897.9897-.9897s.9897.4431.9897.9897-.4431.9897-.9897.9897-.9897-.4431-.9897-.9897m5.3758 13.4675a2.98 2.98 0 0 1-.3422-1.3902c0-1.6138 1.2785-2.9288 2.8778-2.9877a7.06 7.06 0 0 0 .0834-1.0844c0-2.954-1.8283-5.4809-4.4151-6.5108-.5169.8939-1.4832 1.4953-2.59 1.4953s-2.073-.6014-2.59-1.4953c-2.5867 1.03-4.415 3.5568-4.415 6.5108 0 .3688.0284.731.0834 1.0844 1.5993.0588 2.8779 1.3739 2.8779 2.9877a2.98 2.98 0 0 1-.3423 1.3903C8.8142 19.4224 10.3395 20 11.9997 20s3.1856-.5776 4.3861-1.5428M4.9663 16.0773c-.5466 0-.9897.4431-.9897.9897s.443.9897.9897.9897.9897-.4431.9897-.9897-.4431-.9897-.9897-.9897m13.0773.9897c0-.5466.4431-.9897.9897-.9897s.9897.4431.9897.9897-.4431.9897-.9897.9897-.9897-.4431-.9897-.9897"/></svg>
